X: 1
T: The Bridal Jig
Z: John Chambers <jc@trillian.mit.edu>
B: Cole p.58
R: jig
M: 6/8
L: 1/8
K: G
|: "D7"D | "G"G2G BGB | "D7"def "G"gfg | "C"ecA "G"dBG | "D7"F>AG FED |
y4       | "G"G2G BGB | "D7"def "G"gfg | "C"ecA "G"dBG | "D7"cAF "G"G2 :|
|: B | "Em"B>ee edB | "D"d>ef "Em"g2a | bag "D"agf | "Em"e2e edB |
y4       | "Em"B>ee edB | "D"d>ef "Em"g2a | bag "D"agf |1 "Em"e2e e2 :|2 "Em  "e3 "D7"d2 :|
x8 x8 x8 x8 x8 x8 x8 x8 |
x8 x8 x8 x8 x8 x8 x8 x8 |
x8 x8 x8 x8 x8 x8 x8 x8 |
x8 x8 x8 x8 x8 x8 x8 x8 |
x8 x8 x8 x8 x8 x8 x8 x8 |
x8 x8 x8 x8 x8 x8 x8 x8 |
